X: 29531
T: No More Cages
R: three-two
M: 3/2
K: Ddorian
|:Acdd- ddcA cd d2|Acdd- ddcA cd G2|
Acdd- ddcA cd d2|fdcd- ddcA cd G2:|
|:Bdee- eedB de e2|ABde- eedB de A2|
Bdee- eedB de e2|gede- eedB de A2:|

